Papirus/16x16/mimetypes/application-x-hda.svg

<svg width="16" height="16" version="1.1" xmlns="http://www.w3.org/2000/svg">
 <path d="m2.0026045 5.1807341c-0.00151 0.02663-0.00238 0.0533-0.0026 0.079979v5.4434249c1.562e-4 0.568563 0.2902593 1.093867 0.7610676 1.378103l4.477863 2.704253c0.4709371 0.284435 1.051198 0.284435 1.5221351 0l4.4778638-2.704253c0.471008-0.284358 0.761143-0.809979 0.761066-1.378786v-5.442742c-7.2e-4 -0.0200749-0.0018-0.0401244-0.0033-0.0601556 0.0033-6.246e-4 -11.994096-0.0198243-11.994096-0.0198233z" style="fill:#c25824"/>
 <path d="m8.0358349 1v7.001e-4a1.5230488 1.6106846 0 0 0-0.7974811 0.2144297l-4.4812681 2.73644a1.5230488 1.6106846 0 0 0-0.7570854 1.291434 1.5230488 1.6106846 0 0 0 0.7570854 1.3045823l4.4812681 2.73644a1.5230488 1.6106846 0 0 0 1.5232919 0l4.4812693-2.73644a1.5230488 1.6106846 0 0 0 0.757085-1.2914395 1.5230488 1.6106846 0 0 0-0.757085-1.3045818l-4.4812693-2.73644a1.5230488 1.6106846 0 0 0-0.7258108-0.2151248z" style="fill:#f36128"/>
 <path d="m2.0028128 5.1806105c-9.96e-4 0.017537-0.00144 0.035171-0.00187 0.052733a1.5230488 1.6106846 0 0 1 0.00516-0.052733h-0.00328zm-0.00234 0.066894c-7.56e-5 0.0043922-4.344e-4 0.0087921-4.728e-4 0.0131821v5.4432894c1.562e-4 0.568562 0.2904417 1.094165 0.76125 1.378401l4.4774998 2.704066c0.2423146 0.146353 0.4908341 0.217633 0.7612502 0.213377v-5.5013935a1.5230488 1.6106846 0 0 1-0.7617187-0.2143526l-4.4812498-2.7362933a1.5230488 1.6106846 0 0 1-0.7565625-1.3002763z" style="opacity:.1"/>
 <path d="m10.766562 7.2247394c-0.9494892 0.5776214-2.1743483 0.9423362-2.766562 1.033605-0.5922136 0.0912689-1.3800275 0.1167488-2.6085227-0.1019464l-1.3914773-0.8545808c0.5598305 0.115457 1.9350411 0.3392867 2.7885081 0.3605916 0.853467 0.0213045 2.0736734-0.2309291 3.0239951-0.7969505 0.0637447-0.0379448 0.1269588-0.0774928 0.1895628-0.1185027 1.426742-0.9349041 1.306926-2.2640063 0.133465-3.0213421-1.3154213-0.8491962-3.0742691-0.8875419-4.4656038 0.0358148-0.9339614 0.619773-1.1966186 1.6071289-0.1962316 2.1912711 0.7863755 0.459244 1.9490716 0.4956385 2.8455812-0.0389767 0.7314076-0.4361836 0.5434961-0.9186127 0.2464989-1.1060795-0.2825524-0.1783493-0.820599-0.2996618-1.3309218-0.0869275-0.4106714 0.1711911-0.5386195 0.6921754 0.2966779 0.7597551-0.3520414 0.2423283-0.9007951 0.3024606-1.3264041 0.0631429-0.8307873-0.4673215-0.3135461-1.1912803 0.3049015-1.4808318 1.1427506-0.5350987 2.1406144-0.3701627 2.9829253 0.1731502 0.8720445 0.5626573 0.8092315 1.5660048-0.2454693 2.2301663-0.8346614 0.525513-1.9896607 0.9040472-3.6815164 0.4534575-1.6918557-0.4505898-2.1210359-1.4413606-1.7856889-2.4983794 0.2725039-0.8280741 1.4340875-1.7440099 3.0884811-2.010704 1.6543936-0.2666943 2.9790414-0.0763027 4.211475 0.7253902 1.742001 1.1334447 1.755554 2.8301236-0.313675 4.0888765l1e-6 2e-7" style="fill:#e4e4e4"/>
</svg>

<svg xmlns="http://www.w3.org/2000/svg" width="16" height="16" version="1.1">
 <path style="fill:#c25824" d="M 2.0026,5.1807 C 2.0011,5.2074 2.0002,5.234 2,5.2607 V 10.704 C 2.0002,11.273 2.2903,11.798 2.7611,12.082 L 7.2389,14.786 C 7.7099,15.071 8.2901,15.071 8.7611,14.786 L 13.239,12.082 C 13.71,11.798 14,11.272 14,10.703 V 5.2607 C 13.999,5.2406 13.998,5.2206 13.997,5.2006 14,5.1999 2.0026,5.1807 2.0026,5.1807 Z"/>
 <path style="fill:#f36128" d="M 8.0358,1 V 1.0007 A 1.523,1.6107 0 0 0 7.2384,1.2151 L 2.7571,3.9516 A 1.523,1.6107 0 0 0 2,5.243 1.523,1.6107 0 0 0 2.7571,6.5476 L 7.2384,9.284 A 1.523,1.6107 0 0 0 8.7616,9.284 L 13.243,6.5476 A 1.523,1.6107 0 0 0 14,5.2561 1.523,1.6107 0 0 0 13.243,3.9516 L 8.7616,1.2151 A 1.523,1.6107 0 0 0 8.0358,1 Z"/>
 <path style="opacity:0.1" d="M 2.0028,5.1806 C 2.0018,5.1981 2.0014,5.2158 2.0009,5.2333 A 1.523,1.6107 0 0 1 2.0061,5.1806 Z M 2.0005,5.2475 C 2.0004,5.2519 2,5.2563 2,5.2607 V 10.704 C 2.0002,11.273 2.2904,11.798 2.7613,12.082 L 7.2387,14.786 C 7.4811,14.933 7.7296,15.004 8,15 V 9.4984 A 1.523,1.6107 0 0 1 7.2383,9.2841 L 2.757,6.5478 A 1.523,1.6107 0 0 1 2.0005,5.2475 Z"/>
 <path style="fill:#e4e4e4" d="M 10.767,7.2247 C 9.8171,7.8024 8.5922,8.1671 8,8.2583 7.4078,8.3496 6.62,8.3751 5.3915,8.1564 L 4,7.3018 C 4.5598,7.4173 5.935,7.6411 6.7885,7.6624 7.642,7.6837 8.8622,7.4315 9.8125,6.8655 9.8762,6.8275 9.9395,6.788 10.002,6.747 11.429,5.8121 11.309,4.4829 10.136,3.7256 8.8201,2.8764 7.0613,2.8381 5.6699,3.7614 4.736,4.3812 4.4733,5.3686 5.4737,5.9527 6.2601,6.4119 7.4228,6.4483 8.3193,5.9137 9.0507,5.4775 8.8628,4.9951 8.5658,4.8076 8.2832,4.6293 7.7452,4.508 7.2349,4.7207 6.8242,4.8919 6.6962,5.4129 7.5315,5.4805 7.1795,5.7228 6.6307,5.7829 6.2051,5.5436 5.3743,5.0763 5.8916,4.3523 6.51,4.0628 7.6528,3.5277 8.6506,3.6926 9.493,4.2359 10.365,4.7986 10.302,5.8019 9.2475,6.4661 8.4128,6.9916 7.2578,7.3701 5.566,6.9196 3.8741,6.469 3.4449,5.4782 3.7803,4.4212 4.0528,3.5931 5.2144,2.6772 6.8688,2.4105 8.5232,2.1438 9.8478,2.3342 11.08,3.1359 12.822,4.2693 12.836,5.966 10.767,7.2247 V 7.2247"/>
</svg>
